X:1
T:Title
%%score 1 2
L:1/8
Q:1/4=105
M:4/4
K:Bb
V:1 treble nm="Grand Piano, Soprano"
V:2 bass nm="Choir Pad, Guatemala, 87.87 D"
V:1
 [DB][Ec] [Fd]2 [DB]2 [EG]2 | [EB]2 [DF]2- [DF][EG] [DB]2 | [DB][Ec] [Fd]2- [Fd][Fd] [Fd]2 | %3
w: By~John~Robson~Sweney,~1878 * * * *|||
 [Fd]2 [Fc]6 | [Fc][Fd] [Fe]2 [Fd]2 [Ec]2 | [DB]2 [EG]2- [EG][FA] [GB]2 | %6
w: |||
 [EG][EG] [DF]2- [DF][Fd] [Fd]2 | [Ec]2 [DB]6 | [DF][Fd][Ec][DB]- [DB]3- [DB]/ z/ | %9
w: |||
 [DF][DB][FA][EG]- [EG]3- [EG]/ z/ | [EG][EG] [DF]2- [DF][DF] [DB]2 | [Fc]2 [Fd]2- [Fd][Ge] [Fd]2 | %12
w: |||
 [Fd][Ec][Ec][DB]- [DB]3- [DB]/ z/ | [DB][FA][FA][EG]- [EG]3- [EG]/ z/ | %14
w: ||
 [EG][EG] [DF]2- [DF][Fd] [Fd]2 | [Ec]2 [DB]6- | [DB]2 z2 z4 |] %17
w: |||
V:2
 [B,,B,][B,,B,] [B,,B,]2 [B,,B,]2 [E,B,]2 | [G,B,]2 B,4 [B,,B,]2 | %2
 [B,,B,][B,,B,] [B,,B,]2- [B,,B,][B,,B,] [B,,B,]2 | [D,B,]2 [F,A,]6 | %4
 [F,A,][F,B,] [F,C]2 [F,B,]2 [F,A,]2 | [G,B,]2 [G,B,]4 [G,E]2 | %6
 [E,B,][E,B,] [F,B,]2- [F,B,][F,B,] [F,B,]2 | F,2 [B,,F,]6 | z4 [B,,F,][B,,F,][B,,F,][B,,F,] | %9
 z4 [E,B,][E,B,][E,B,][E,B,] | [E,B,][E,B,] [F,B,]2- [F,B,][F,B,] [F,B,]2 | [F,A,]2 [B,,B,]6 | %12
 [B,,B,][B,,B,][B,,B,][B,,F,] [B,,F,][B,,F,][B,,F,][B,,F,] | %13
 [B,,B,][D,B,][E,B,][E,B,] [E,B,][E,B,] [E,B,]2 | [E,B,][E,B,] [F,B,]2- [F,B,][F,B,] [F,B,]2 | %15
 [F,A,]2 [B,,B,]6- | [B,,B,]2 z2 z4 |] %17

